X:1
T:Title
%%score { ( 1 3 ) | ( 2 4 ) }
L:1/8
Q:1/4=108
M:6/4
K:Ab
V:1 treble nm="Grand Piano"
V:3 treble 
V:2 bass 
V:4 bass 
V:1
 A2 A2 A2 G2 F2 E2 |[M:4/4] [CA]4 B4 |[M:6/4] c2 c2 c2 B2 A2 [=DF]2 | B12 | A2 A2 A2 G2 F2 E2 | %5
w: J.~Lincoln~Hall * * * * *|||||
[M:4/4] [CA]4 B4 |[M:6/4] c2 c2 c2 [A=d]2 [Ac]2 [Ad]2 | e6 d6 | c2 B2 A2 c2 B2 A2 | d6 c6 | %10
w: |||||
 [FB]2 [FA]2 [DF]2 [FB]2 [FA]2 [A,DF]2 | [CE]12 | A2 A2 A2 A2 B2 c2 | [Fe]6 [=Ed]6 | %14
w: ||||
 [Ec]2 [Fd]2 [Ec]2 [=DB] [DF]3 [B,_DG]2 | A2- [EA-]2 [DA-]2 [CA]6 |] %16
w: ||
V:2
 [A,CE]2 [A,CE]2 [A,CE]2 [E,B,D]2 [E,A,D]2 [E,G,D]2 |[M:4/4] [A,,A,]4 [E,G,E]4 | %2
[M:6/4] [A,E]2 [A,E]2 [A,E]2 [F,B,=D]2 [F,B,D]2 [B,,A,]2 | [E,E]12 | %4
 [A,CE]2 [A,CE]2 [A,CE]2 [E,B,D]2 [E,A,D]2 [E,G,D]2 |[M:4/4] [A,,A,]4 [E,G,E]4 | %6
[M:6/4] [A,E]2 [A,E]2 [A,E]2 [F,B,]2 [_G,B,]2 [B,,B,]2 | B,6 z6 | %8
 [A,EA]2 [A,DG]2 [A,C]2 [A,EA]2 [A,DG]2 [A,C]2 | [A,FA]6 [A,EA]6 | %10
 [D,D]2 [D,D]2 [D,A,]2 [D,D]2 [D,D]2 D,2 | A,,2 C,2 E,2 A,6 | %12
 [A,CE]2 [A,CE]2 [A,CE]2 [A,C]2 [A,DG]2 [A,E_G]2 | [D,D]6 [D,A,]6 | %14
 [E,A,]2 [E,A,]2 [E,A,]2 [B,,B,] [B,,B,]3 E,2 | z2 G,2 F,2 E,6 |] %16
V:3
 x12 |[M:4/4] x8 |[M:6/4] x12 | z6 D6 | x12 |[M:4/4] x8 |[M:6/4] x12 | G12 | x12 | x12 | x12 | %11
 A,6 z6 | x12 | x12 | x12 | .[A,C]6 z6 |] %16
V:4
 x12 |[M:4/4] x8 |[M:6/4] x12 | G,6 z6 | x12 |[M:4/4] x8 |[M:6/4] x12 | E,6- [E,E]6 | x12 | x12 | %10
 x12 | x12 | x12 | x12 | x12 | A,,12 |] %16

